v/0.4.11/design-resources/icons/wf_doctype-icons/twfr-file-book.svg

<?xml version="1.0" encoding="utf-8"?>
<!-- Generated by IcoMoon.io -->
<!DOCTYPE svg PUBLIC "-//W3C//DTD SVG 1.1//EN" "http://www.w3.org/Graphics/SVG/1.1/DTD/svg11.dtd">
<svg version="1.1" xmlns="http://www.w3.org/2000/svg" xmlns:xlink="http://www.w3.org/1999/xlink" width="768" height="768" viewBox="0 0 768 768">
<g>
</g>
	<path d="M640 96l-32-32h-512v64.084c-53 0.458-96 43.636-96 96.729 0 32.738 16.787 62.209 42.62 79.836-25.695 17.428-42.62 46.855-42.62 80.164 0 32.738 16.787 62.209 42.62 79.836-25.695 17.428-42.62 46.856-42.62 80.165 0 45.859 32.593 86.078 77.469 95.188 5.231 0 11.838 0 18.531 0v64l32 32h480l32-32.011v-607.988zM83.844 288.328c-30.047-6.094-51.844-32.813-51.844-63.515 0-35.451 28.641-64.273 64-64.729v128c-3.51 0.031-6.859 0.643-10.271 1.040-0.655-0.225-1.187-0.655-1.885-0.795zM83.844 448.328c-30.047-6.094-51.844-32.813-51.844-63.515 0-35.451 28.641-64.274 64-64.729v128c-3.51 0.032-6.859 0.643-10.271 1.039-0.655-0.224-1.187-0.654-1.885-0.795zM83.199 608.137c-30.209-3.148-51.2-32.849-51.2-63.324 0-35.451 28.641-64.274 64-64.729v127.972c-4.951 0.019-9.514 0.045-12.801 0.080zM608 672h-480v-183.897c16.222 8.939 28.439 24.592 32.328 43.615 1.766 8.657 10.297 14.282 18.875 12.469 8.656-1.765 14.234-10.219 12.469-18.875-7-34.186-31.928-61.092-63.672-71.983v-125.227c16.222 8.939 28.439 24.592 32.328 43.615 1.766 8.656 10.297 14.281 18.875 12.469 8.656-1.765 14.234-10.219 12.469-18.875-7-34.186-31.928-61.092-63.672-71.983v-125.227c16.222 8.939 28.439 24.592 32.328 43.615 1.766 8.656 10.297 14.281 18.875 12.469 8.656-1.766 14.234-10.219 12.469-18.875-7-34.186-31.928-61.092-63.672-71.983v-37.33h480v576z" fill="#595959"></path>
</svg>

<svg xmlns="http://www.w3.org/2000/svg" width="768" height="768" viewBox="0 0 768 768"><path stroke="#449FDB" d="M0 0"/><path d="M640 96l-32-32H96v64.084c-53 .458-96 43.636-96 96.73 0 32.737 16.787 62.208 42.62 79.835C16.925 322.075 0 351.502 0 384.81c0 32.738 16.787 62.21 42.62 79.836C16.925 482.076 0 511.504 0 544.813 0 590.673 32.593 630.89 77.47 640c5.23 0 11.837 0 18.53 0v64l32 32h480l32-32.01V96zM83.844 288.328C53.797 282.234 32 255.515 32 224.813c0-35.45 28.64-64.273 64-64.73v128c-3.51.032-6.86.644-10.27 1.04-.656-.224-1.188-.654-1.886-.794zm0 160C53.797 442.234 32 415.515 32 384.813c0-35.45 28.64-64.274 64-64.73v128c-3.51.033-6.86.644-10.27 1.04-.656-.224-1.188-.654-1.886-.795zm-.645 159.81c-30.21-3.15-51.2-32.85-51.2-63.325 0-35.45 28.64-64.274 64-64.73v127.973c-4.953.02-9.516.045-12.803.08zM608 672H128V488.103c16.222 8.94 28.44 24.592 32.328 43.615 1.766 8.657 10.297 14.282 18.875 12.47 8.656-1.766 14.234-10.22 12.47-18.876-7-34.186-31.93-61.092-63.673-71.983V328.1c16.222 8.94 28.44 24.592 32.328 43.615 1.766 8.656 10.297 14.28 18.875 12.47 8.656-1.766 14.234-10.22 12.47-18.876-7-34.186-31.93-61.09-63.673-71.983V168.1c16.222 8.94 28.44 24.593 32.328 43.616 1.766 8.656 10.297 14.28 18.875 12.47 8.656-1.767 14.234-10.22 12.47-18.876-7-34.186-31.93-61.092-63.673-71.983v-37.33h480v576z" fill="#595959"/></svg>
